X: 30727
T: Orla's
R: reel
M: 4/4
K: Gmajor
ge|:d2ge dBAd|B2AG EGGE|DGG2 DEGB|dBGB A2ge|
d2ge dBAd|B2AG EGGE|DGG2 DGBG|1 AGEF G2ge:|2 AGEF G3^c||
|:d2ed agg2|b2ag efge|dBge dBGd|
[1BAGB A3^c|d2ed agg2|b2ag efge|dBge dBAG|FAAD (G3G):|
[2BAGB A3c|B2AG EFGE|DEGA Bdge|dBge dBAG|FAAD (G3G)||

